X:1
T:Walk The Line Intro
M:4/4
L:1/8
Q:1/4=48
K:C
V:9
z6 z/2C/2D/2E/2|FC F/2F/2G/2A/2 ^AF ^A/2^A/2=A/2G/2|FC/2z/2 F/2F/2E/2D/2 CG/2z/2 [G/2G/2]C/2[D/2C/2]C/2|G/2z/2B G/2F/2E/2D/2 CG, CG,|
CG, CG, CG, C/2C/2B,/2A,/2|G,D G,/2G,/2A,/2B,/2 CG, C/2C/2B,/2A,/2|G,D G,/2G,/2A,/2B,/2 CG, C/2C/2D/2E/2|FC F/2F/2E/2D/2 C/2z/2G, C/2C/2B,/2A,/2|
G,D G,/2G,/2A,/2B,/2 CG, C/2z/2G,|CG, CG, CG, CG,|CG, C/2C/2B,/2A,/2 G,D G,/2G,/2A,/2B,/2|CG, C/2C/2B,/2A,/2 G,D G,/2G,/2A,/2B,/2|
CG, C/2C/2D/2E/2 FC/2z/2 F/2F/2E/2D/2|CG, C/2C/2B,/2A,/2 G,D G,/2G,/2A,/2B,/2|CG, C/2z/2G, C/2z/2G, CG,|DA, DA, DA, D/2D/2^C/2B,/2|
A,E A,/2A,/2B,/2^C/2 DA, D/2D/2^C/2B,/2|A,E A,/2A,/2B,/2^C/2 DA, D/2D/2E/2^F/2|GD G/2G/2^F/2E/2 D[B,/2A,/2-]A,/2 D/2D/2^C/2B,/2|A,E A,/2A,/2B,/2^C/2 DA, DA,|
DA, DA, DA, DA,|DA, D/2D/2^C/2B,/2 A,E A,/2A,/2B,/2^C/2|DA, D/2D/2^C/2B,/2 A,E A,/2A,/2B,/2^C/2|DA, D/2D/2E/2^F/2 GD G/2G/2^F/2E/2|
DA, D/2D/2^C/2B,/2 A,E A,/2A,/2B,/2^C/2|DA, DA, DA, DA,|DA, DA, DA, D/2^C/2D/2
-----------------------------------------------------------------------------
Stronkie16-11-2007, 10:05 AMDanny Boy
